!!!!SEGMENT: pl-kk--kk-i-1--020_anonim--ave-verbi-dei-parens.krn
!!!cenid: 15xx:733
!!!COM: Anonim
!!!COM-rismid: pe30004985
!!!CDT:
!!!CNT:
!!!OTL: Ave verbi Dei parens
!!!PDT:
!!!AGN:
!!!SMS-siglum: PL-Kk
!!!SMS-shelfmark: Kk.I.1
!!!SMS-shelfwork: 020 W
!!!SMS-variant:
!!!SMS-altvar:
!!!NIFC-rismid: 300257974
!!!URL-scan: http://repozytorium.nifc.pl/skany/pl-kk-nut--i-1
!!!ONB-nifc: UWAGA: Cantus (s. 104r-105v, skan 0106-0108), Altus (s. 99r-101r, skan 0292-0294), Tenor (s. 93r-94r, skan 0483-0484), Bassus (s. 97v-99r, skan 0660-0661).
!!!key: e:phr
**kern	**text	**kern	**text	**kern	**text	**text	**kern	**text	**kern	**text
*part5	*part5	*part4	*part4	*part3	*part3	*	*part2	*part2	*part1	*part1
*staff5	*staff5	*staff4	*staff4	*staff3	*staff3	*	*staff2	*staff2	*staff1	*staff1
*I"BASSVS	*	*I"Quinta vox	*	*I"TENOR	*	*	*I"ALTVS	*	*I"CANTVS	*
*I'B	*	*I'V 5	*	*I'T	*	*	*I'A	*	*I'S	*
*Ibass	*	*Ivox	*	*Itenor	*	*	*Ialto	*	*Isoprn	*
*ICvox	*	*ICvox	*	*ICvox	*	*	*ICvox	*	*ICvox	*
*clefF4	*	*clefC4	*	*clefC4	*	*	*clefC4	*	*clefC3	*
*k[]	*	*k[]	*	*k[]	*	*	*k[]	*	*k[]	*
*e:phr	*	*e:phr	*	*e:phr	*	*	*e:phr	*	*e:phr	*
*M2/1	*	*M2/1	*	*M2/1	*	*	*M2/1	*	*M2/1	*
*met(C)	*	*met(C|)	*	*met(C)	*	*	*met(C)	*	*met(C)	*
=1-	=1-	=1-	=1-	=1-	=1-	=1-	=1-	=1-	=1-	=1-
*	*	*	*	*lig	*	*	*	*	*	*
!!LO:TX:t=P:problem:all\middle:global
!!LO:TX:t=P:problem:metrum przed kluczem
!!LO:TX:t=P:problem:tekst Ave Maria w T dopisany inną ręką
2E\	A-	0ryy	.	1E	A-	A-	2B\	A-	1e	A-
2C/	.	.	.	.	.	.	1c	.	.	.
1D	.	.	.	1F	.	.	.	.	2d\	-ue
.	.	.	.	.	.	.	2B\	.	2f\	.
*	*	*	*	*Xlig	*	*	*	*	*	*
=2-	=2-	=2-	=2-	=2-	=2-	=2-	=2-	=2-	=2-	=2-
!	!	!LO:TX:t=P:problem=piąty głos dopisany na końcu partii tenorowej, tylko dla ostatniej strofy sekwencji	!	!	!	!	!	!	!	!
0C	-ue	0ryy	.	1G	.	.	0c	.	2e\	.
.	.	.	.	.	.	.	.	.	2.g\	ver-
.	.	.	.	1E	-ue	.	.	.	.	.
.	.	.	.	.	.	.	.	.	4f\	.
.	.	.	.	.	.	.	.	.	2.e\	.
=3-	=3-	=3-	=3-	=3-	=3-	=3-	=3-	=3-	=3-	=3-
*	*	*	*	*lig	*	*	*	*	*	*
1D	.	0ryy	.	1F	uer-	-ve	1A	-ue	.	.
.	.	.	.	.	.	.	.	.	4d\	.
.	.	.	.	.	.	.	.	.	1d	.
1AA	.	.	.	1E	.	.	1A	ver-	.	.
.	.	.	.	.	.	.	.	.	2c/	.
*	*	*	*	*Xlig	*	*	*	*	*	*
=4-	=4-	=4-	=4-	=4-	=4-	=4-	=4-	=4-	=4-	=4-
2A\	ver-	0ryy	.	1D	-bi	.	2F/	-bi	1d	-bi
2F\	-bi	.	.	.	.	.	2A/	De-	.	.
1E	De-	.	.	1G	De-	Ma-	1G	-i	2r	.
.	.	.	.	.	.	.	.	.	2c/	De-
=5-	=5-	=5-	=5-	=5-	=5-	=5-	=5-	=5-	=5-	=5-
1D	-i	0ryy	.	1A	-i	.	2.F/	pa-	2d/	-i
.	.	.	.	.	.	.	.	.	1f	pa-
.	.	.	.	.	.	.	4G/	.	.	.
*	*	*	*	*lig	*	*	*	*	*	*
2r	.	.	.	1c	pa-	-ri-	2A/	.	.	.
*	*	*	*	*	*	*	*	*	*custos:e	*
!	!	!	!	!	!	!	!	!	!LO:LB:g=original	!
2C/	De-	.	.	.	.	.	2G/	.	2e\	.
=6-	=6-	=6-	=6-	=6-	=6-	=6-	=6-	=6-	=6-	=6-
1D	-i	0ryy	.	1B	.	.	1F	-rens	1d	.
*lig	*	*	*	*Xlig	*	*	*	*	*	*
1F	pa-	.	.	1A	-re(n)s	-a	1r	.	2.c/	.
.	.	.	.	.	.	.	.	.	4d\	-rens
=7-	=7-	=7-	=7-	=7-	=7-	=7-	=7-	=7-	=7-	=7-
1E	.	0ryy	.	1B	hu-	gra-	2r	.	0e	.
*	*	*	*	*	*	*	*custos:G	*	*	*
!	!	!	!	!	!	!	!LO:PB:g=original	!	!	!
.	.	.	.	.	.	.	2G/	De-	.	.
*Xlig	*	*	*	*	*	*	*	*	*	*
2AA/	-rens	.	.	1c	-mi-	.	2A/	-i	.	.
2A\	hu-	.	.	.	.	.	1c\	pa-	.	.
*custos:G	*	*	*	*	*	*	*	*	*	*
=8-	=8-	=8-	=8-	=8-	=8-	=8-	=8-	=8-	=8-	=8-
!LO:LB:g=original	!	!	!	!	!	!	!	!	!	!
1G	-mi-	0ryy	.	1d	-lis	.	.	.	2r	.
.	.	.	.	.	.	.	2B/	-rens	2d\	hu-
2.F\	-lis	.	.	1A	vir-	-ti-	2c\	.	1f	-mi-
.	.	.	.	.	.	.	1c\	hu-	.	.
4E\	.	.	.	.	.	.	.	.	.	.
*	*	*	*	*custos:G	*	*	*	*	*	*
=9-	=9-	=9-	=9-	=9-	=9-	=9-	=9-	=9-	=9-	=9-
!	!	!	!	!LO:LB:g=original	!	!	!	!	!	!
1C	.	0ryy	.	1G	.	-a	.	.	2e\	-lis
.	.	.	.	.	.	.	2c\	-mi-	2.e\	uir-
2.D/	vir-	.	.	1F	.	.	2A/	-lis	.	.
.	.	.	.	.	.	.	.	.	4d\	.
.	.	.	.	.	.	.	2.B\	uir-	1d\	.
4C/	.	.	.	.	.	.	.	.	.	.
=10-	=10-	=10-	=10-	=10-	=10-	=10-	=10-	=10-	=10-	=10-
4AA/	.	0ryy	.	1E	.	.	.	.	.	.
4BB/	.	.	.	.	.	.	4A/	.	.	.
2C/	.	.	.	.	.	.	1A	.	2c/	.
1BB	.	.	.	1D	-gi-	ple-	.	.	1d	.
.	.	.	.	.	.	.	2G/	.	.	.
=11-	=11-	=11-	=11-	=11-	=11-	=11-	=11-	=11-	=11-	=11-
2AA/	-gi-	0ryy	.	1E	-ni-	.	2.A/	.	2.c/	.
1AA	-ni-	.	.	.	.	.	.	.	.	.
.	.	.	.	.	.	.	4B/	.	4B/	.
!	!	!	!	!LO:TX:t=22:problem=dopisany inną ręką	!	!	!	!	!	!
!	!	!	!	!LO:TX:b:t=2:problem=dopisany inną ręką	!	!	!	!	!	!
.	.	.	.	[1E;l\	-tas	-na	2c\	.	2A/	.
2GG/	-tas	.	.	.	.	.	2B\	-gi-	2B/	-gi-
=12-	=12-	=12-	=12-	=12-	=12-	=12-	=12-	=12-	=12-	=12-
1AA	.	0ryy	.	0E]	.	.	1A	-ni-	1c	-ni-
!	!	!	!	!	!	!	!LO:TX:t=24:problem=dopisany inną ręką	!	!	!
!LO:TX:a:t=24:problem=dopisany inną ręką	!	!	!	!	!	!	!LO:TX:t=P:problem=# below	!	!LO:TX:t=24:problem=dopisany inną ręką	!
1El\	.	.	.	.	.	.	1G#X;l\	-tas	1B;l\	-tas
*custos:C	*	*	*	*	*	*	*custos:e	*	*custos:g	*
=13-	=13-	=13-	=13-	=13-	=13-	=13-	=13-	=13-	=13-	=13-
!LO:PB:g=original	!	!	!	!	!	!	!LO:LB:g=original	!	!LO:LB:g=original	!
4C/	Gaŭ-	0ryy	.	1c	Gau-	a-	1.e	Gau-	0g	Gau-
4D/	.	.	.	.	.	.	.	.	.	.
4E/	.	.	.	.	.	.	.	.	.	.
4F\	.	.	.	.	.	.	.	.	.	.
4G\	.	.	.	1G	-de	.	.	.	.	.
4A\	.	.	.	.	.	.	.	.	.	.
2.B\	.	.	.	.	.	.	2d\	-de	.	.
=14-	=14-	=14-	=14-	=14-	=14-	=14-	=14-	=14-	=14-	=14-
.	.	0ryy	.	1A	qu(ae)	.	2.c\	.	1e	.
4A\	.	.	.	.	.	.	.	.	.	.
1A	.	.	.	.	.	.	.	.	.	.
.	.	.	.	.	.	.	8B/L	qu(ae)	.	.
.	.	.	.	.	.	.	8A/J	.	.	.
*	*	*	*	*lig	*	*	*	*	*	*
.	.	.	.	1E	ſic	-ve	1B	.	1e	-de
2G\	.	.	.	.	.	.	.	.	.	.
=15-	=15-	=15-	=15-	=15-	=15-	=15-	=15-	=15-	=15-	=15-
2A\	-de	0ryy	.	1F	.	.	2A/	ſic	2c/	quae
2D/	qu(ae)	.	.	.	.	.	2d\	gra-	2f\	ſic
*	*	*	*	*Xlig	*	*	*	*	*	*
2E/	ſic	.	.	1G	gra-	.	2B\	-ui-	1e	gra-
2C/	gra-	.	.	.	.	.	2c\	-da-	.	.
=16-	=16-	=16-	=16-	=16-	=16-	=16-	=16-	=16-	=16-	=16-
*	*	*	*	*	*	*	*	*	*lig	*
2D/	-ui-	0ryy	.	1D	-ui-	Do-	0.A	-ris	1f	-ui-
2D/	-da-	.	.	.	.	.	.	.	.	.
*	*	*	*	*lig	*	*	*	*	*	*
1AA	-ris	.	.	1C	-da-	.	.	.	1e	.
*	*	*	*	*	*	*	*	*	*Xlig	*
=17-	=17-	=17-	=17-	=17-	=17-	=17-	=17-	=17-	=17-	=17-
2r	.	0ryy	.	1D	.	.	.	.	2d\	-da-
!	!	!	!	!	!	!	!	!	!LO:TX:t=P:problem=poprawka wysokości	!
1D	nec	.	.	.	.	.	.	.	2f\	-ris
*	*	*	*	*Xlig	*	*	*	*	*	*
.	.	.	.	1E	-ris	-mi-	2r	.	1e	.
2C/	gra-	.	.	.	.	.	1A\	nec	.	.
=18-	=18-	=18-	=18-	=18-	=18-	=18-	=18-	=18-	=18-	=18-
*	*	*	*	*lig	*	*	*	*	*	*
1D	-ua-	0ryy	.	1F	nec	-nus	.	.	2r	.
.	.	.	.	.	.	.	2F/	.	1d	nec
*custos:AA	*	*	*	*	*	*	*	*	*	*
!LO:LB:g=original	!	!	!	!	!	!	!	!	!	!
1AA	-ris	.	.	1E	.	.	1A	gra-	.	.
.	.	.	.	.	.	.	.	.	2c/	gra-
*	*	*	*	*Xlig	*	*	*	*	*	*
=19-	=19-	=19-	=19-	=19-	=19-	=19-	=19-	=19-	=19-	=19-
2r	.	0ryy	.	1D	gra-	.	2D/	-ua-	1d	-ua-
*	*ij	*	*	*	*	*	*	*	*	*
2D/	nec	.	.	.	.	.	2A/	-ris	.	.
*	*	*	*	*custos:G	*	*	*	*	*	*
*	*	*	*	*lig	*	*	*	*ij	*	*
!	!	!	!	!LO:LB:g=original	!	!	!	!	!	!
2E\	.	.	.	1G	-ua-	te-	2Gny/	nec	2B/	-ris
*	*	*	*	*	*	*	*	*	*	*ij
2C/	gra-	.	.	.	.	.	1c\	gra-	1e\	nec
=20-	=20-	=20-	=20-	=20-	=20-	=20-	=20-	=20-	=20-	=20-
1F	-ua-	0ryy	.	1A	.	.	.	.	.	.
.	.	.	.	.	.	.	4B\	.	2d\	gra-
.	.	.	.	.	.	.	4A\	.	.	.
*	*	*	*	*Xlig	*	*	*custos:B	*	*	*
!	!	!	!	!	!	!	!LO:LB:g=original	!	!	!
2E\	.	.	.	1G	-ris	.	2B\	-ua-	1e	-ua-
*	*	*	*	*	*	*	*	*	*	*
2C/	.	.	.	.	.	.	2c\	.	.	.
=21-	=21-	=21-	=21-	=21-	=21-	=21-	=21-	=21-	=21-	=21-
1D	.	0ryy	.	1F	.	.	0A	-ris	2A/	-ris
*	*	*	*	*	*	*	*	*Xij	*	*Xij
.	.	.	.	.	.	.	.	.	1d	nec
2AA/	-ris	.	.	1E	.	.	.	.	.	.
*	*Xij	*	*	*	*	*	*	*	*custos:c	*
!	!	!	!	!	!	!	!	!	!LO:PB:g=original	!
1C/	fi-	.	.	.	.	.	.	.	2c/	gra-
=22-	=22-	=22-	=22-	=22-	=22-	=22-	=22-	=22-	=22-	=22-
.	.	0ryy	.	1D	fi-	.	2r	.	1d	-ua-
2BB/	.	.	.	.	.	.	2G/	fi-	.	.
2AA/	.	.	.	1E	-li-	.	2A/	.	2c/	-ris
2GG/	.	.	.	.	.	.	2B\	.	2B/	.
=23-	=23-	=23-	=23-	=23-	=23-	=23-	=23-	=23-	=23-	=23-
!	!	!	!	!LO:TX:t=20:problem=dopisany inną ręką	!	!	!	!	!	!
!	!	!	!	!LO:TX:b:t=1:problem=dopisany inną ręką	!	!	!	!	!	!
1AA	-li-	0ryy	.	0E;l\	-o	-cu(m)	2c\	.	2A/	fi-
.	.	.	.	.	.	.	2A/	-li-	2c/	-li-
!LO:TX:a:t=22:problem=dopisany inną ręką	!	!	!	!	!	!	!LO:TX:t=22:problem=dopisany inną ręką	!	!LO:TX:t=22:problem=dopisany inną ręką	!
1El\	-o	.	.	.	.	.	1Gl\	-o	1B;l\	-o
=24-	=24-	=24-	=24-	=24-	=24-	=24-	=24-	=24-	=24-	=24-
1G	Sal-	0ryy	.	1C	Sal-	a-	1c	Sal-	1e	Sal-
2F\	-ue	.	.	1D	-ue	.	4A/	.	2d\	-ue
.	.	.	.	.	.	.	4G/	-ue	.	.
1A\	.	.	.	.	.	.	4F/	.	1f\	Ieſ-
.	.	.	.	.	.	.	4E/	.	.	.
=25-	=25-	=25-	=25-	=25-	=25-	=25-	=25-	=25-	=25-	=25-
*	*	*	*	*lig	*	*	*	*	*	*
.	.	0ryy	.	1F	Ieſ-	.	2D/	.	.	.
4G\	Ieſ-	.	.	.	.	.	2.d\	Ieſ-	4e\	.
4F\	.	.	.	.	.	.	.	.	4d\	.
*custos:G	*	*	*	*	*	*	*	*	*	*
!LO:LB:g=original	!	!	!	!	!	!	!	!	!	!
1G	.	.	.	1E	.	.	.	.	4e\	.
.	.	.	.	.	.	.	4c\	.	4f\	.
.	.	.	.	.	.	.	2c\	.	2g\	.
*	*	*	*	*Xlig	*	*	*custos:d	*	*	*
=26-	=26-	=26-	=26-	=26-	=26-	=26-	=26-	=26-	=26-	=26-
!	!	!	!	!	!	!	!LO:LB:g=original	!	!	!
2A\	-ſe	0ryy	.	1D	-se	-ve	1d	-ſe	2f\	-ſe
*	*	*	*	*	*	*	*	*	*custos:f	*
!	!	!	!	!	!	!	!	!	!LO:LB:g=original	!
1A	ſtir-	.	.	.	.	.	.	.	2.f\	ſtir-
.	.	.	.	1F	ſtir-	Fi-	0r	.	.	.
.	.	.	.	.	.	.	.	.	4e\	.
4G\	.	.	.	.	.	.	.	.	1d\	.
4F\	.	.	.	.	.	.	.	.	.	.
=27-	=27-	=27-	=27-	=27-	=27-	=27-	=27-	=27-	=27-	=27-
1E	.	0ryy	.	1G	-pe	.	.	.	.	.
.	.	.	.	.	.	.	.	.	2c/	.
*	*	*	*	*lig	*	*	*	*	*	*
1D	-pe	.	.	1A	or-	.	2r	.	2d\	-pe
.	.	.	.	.	.	.	2d\	ſtir-	2.f\	or-
=28-	=28-	=28-	=28-	=28-	=28-	=28-	=28-	=28-	=28-	=28-
2E\	or-	0ryy	.	1G	.	.	2B\	-pe	.	.
.	.	.	.	.	.	.	.	.	4e\	.
2C/	-ta	.	.	.	.	.	2c\	or-	1e	.
*	*	*	*	*Xlig	*	*	*	*	*	*
*	*	*	*	*lig	*	*	*lig	*	*	*
1D	.	.	.	1F	-ta	-li-	1A	-ta	.	.
.	.	.	.	.	.	.	.	.	2d\	.
=29-	=29-	=29-	=29-	=29-	=29-	=29-	=29-	=29-	=29-	=29-
1G	vir-	0ryy	.	1E	.	.	1B	.	0e	-ta
*	*	*	*	*Xlig	*	*	*Xlig	*	*	*
2E\	-gu-	.	.	1G	ŭir-	-a	1B	uir-	.	.
1G\	-la	.	.	.	.	.	.	.	.	.
*	*	*	*	*custos:D	*	*	*	*	*	*
=30-	=30-	=30-	=30-	=30-	=30-	=30-	=30-	=30-	=30-	=30-
!	!	!	!	!LO:PB:g=original	!	!	!	!	!	!
.	.	0ryy	.	1D	-gu-	De-	1A	-gu-	2r	.
2F\	fruc-	.	.	.	.	.	.	.	1d	uir-
1E	-ti-	.	.	1G	-la	.	1G	-la	.	.
.	.	.	.	.	.	.	.	.	2c/	-gu-
=31-	=31-	=31-	=31-	=31-	=31-	=31-	=31-	=31-	=31-	=31-
*	*	*	*	*lig	*	*	*	*	*	*
1D	-fe-	0ryy	.	1F	fru-	-i	2.A/	fru-	1d	-la
.	.	.	.	.	.	.	4B\	.	.	.
1C	-ra	.	.	1E	.	.	1c	.	1e	fruc-
*	*	*	*	*Xlig	*	*	*	*	*	*
=32-	=32-	=32-	=32-	=32-	=32-	=32-	=32-	=32-	=32-	=32-
2r	.	0ryy	.	1D	-cti-	Pa-	2A/	.	1f	-ti-
*	*ij	*	*	*	*	*	*	*	*	*
2D/	fruc-	.	.	.	.	.	2B\	-cti-	.	.
*	*	*	*	*	*	*	*lig	*	*	*
2C/	-ti-	.	.	1E	-fe-	.	1c	-fe-	1e	-fe-
*custos:AA	*	*	*	*	*	*	*	*	*	*
!LO:LB:g=original	!	!	!	!	!	!	!	!	!	!
2AA/	-fe-	.	.	.	.	.	.	.	.	.
=33-	=33-	=33-	=33-	=33-	=33-	=33-	=33-	=33-	=33-	=33-
!LO:TX:a:t=19:problem=dopisany inną ręką	!	!	!	!LO:TX:t=19:problem=dopisany inną ręką	!	!	!LO:TX:t=19:problem=dopisany inną ręką	!	!LO:TX:t=19:problem=dopisany inną ręką	!
0El\	-ra	0ryy	.	0El/	-ra	-tris	0Bl\	-ra	0el\	-ra
*	*Xij	*	*	*	*	*	*Xlig	*	*custos:g	*
*	*	*	*	*	*	*	*custos:d	*	*	*
=34-	=34-	=34-	=34-	=34-	=34-	=34-	=34-	=34-	=34-	=34-
!	!	!	!	!	!	!	!LO:PB:g=original	!	!LO:LB:g=original	!
1G	Plau-	0ryy	.	1G	Plau-	A-	1d	Plau-	1g	Plau-
2D/	-de	.	.	1A	-de	.	2d\	-de	1f	-de
2F\	.	.	.	.	.	.	2.c\	.	.	.
=35-	=35-	=35-	=35-	=35-	=35-	=35-	=35-	=35-	=35-	=35-
*	*	*	*	*lig	*	*	*	*	*	*
4C/	uel-	0ryy	.	1c	ŭel-	-ve	.	.	1e	uel-
4D/	.	.	.	.	.	.	4B\	uel-	.	.
4E\	.	.	.	.	.	.	4G/	.	.	.
4F\	.	.	.	.	.	.	4A/	.	.	.
1G	.	.	.	1B	.	.	2B\	.	0d	-lŭs
.	.	.	.	.	.	.	2G/	-lus	.	.
*	*	*	*	*Xlig	*	*	*	*	*	*
=36-	=36-	=36-	=36-	=36-	=36-	=36-	=36-	=36-	=36-	=36-
2D/	-lus	0ryy	.	1A	-lus	.	2r	.	.	.
2F\	ge-	.	.	.	.	.	2A/	Ge-	.	.
2E\	-de-	.	.	1c	Ge-	Ma-	2G/	-de-	4e\	Ge-
.	.	.	.	.	.	.	.	.	4d\	.
1F\	-o-	.	.	.	.	.	1A\	-o-	4c/	.
.	.	.	.	.	.	.	.	.	4B/	.
=37-	=37-	=37-	=37-	=37-	=37-	=37-	=37-	=37-	=37-	=37-
*	*	*	*	*lig	*	*	*	*	*	*
.	.	0ryy	.	1c	-de-	.	.	.	4A/	.
.	.	.	.	.	.	.	.	.	4B/	.
2E\	-nis	.	.	.	.	.	2G/	.	1c	-de-
1D	.	.	.	1d	.	.	2.F/	.	.	.
.	.	.	.	.	.	.	.	.	2B/	.
.	.	.	.	.	.	.	4G/	.	.	.
*	*	*	*	*Xlig	*	*	*	*	*	*
=38-	=38-	=38-	=38-	=38-	=38-	=38-	=38-	=38-	=38-	=38-
1C	.	0ryy	.	1e	.	.	4A/	.	1c	-o-
.	.	.	.	.	.	.	4B/	.	.	.
.	.	.	.	.	.	.	1c	.	.	.
2r	.	.	.	1d	.	.	.	.	2G/	-nis
2G\	Ge-	.	.	.	.	.	2B\	.	1g\	Ge-
*custos:E	*	*	*	*	*	*	*	*	*	*
=39-	=39-	=39-	=39-	=39-	=39-	=39-	=39-	=39-	=39-	=39-
*	*	*	*	*lig	*	*	*	*	*	*
!LO:PB:g=original	!	!	!	!	!	!	!	!	!	!
2E\	-de-	0ryy	.	1c	-o-	-ter	2c\	.	.	.
*	*	*	*	*	*	*	*custos:A	*	*	*
!	!	!	!	!	!	!	!LO:LB:g=original	!	!	!
2F\	.	.	.	.	.	.	2A/	-nis	4f\	.
.	.	.	.	.	.	.	.	.	4e\	.
1G	.	.	.	1B	.	.	2r	.	1d	.
.	.	.	.	.	.	.	2d\	Ge-	.	.
*	*	*	*	*Xlig	*	*	*	*	*	*
*	*	*	*	*custos:c	*	*	*	*	*	*
=40-	=40-	=40-	=40-	=40-	=40-	=40-	=40-	=40-	=40-	=40-
*lig	*	*	*	*	*	*	*	*	*	*
!	!	!	!	!LO:LB:g=original	!	!	!	!	!	!
1C	-o-	0ryy	.	1c	.	-ter	2c\	-de-	2e\	.
.	.	.	.	.	.	.	2.e\	-o-	1g	-de-
*	*	*	*	*lig	*	*	*	*	*	*
1D	.	.	.	1A	-nis	.	.	.	.	.
.	.	.	.	.	.	.	4d\	.	.	.
*	*	*	*	*	*	*	*	*	*custos:f	*
!	!	!	!	!	!	!	!	!	!LO:LB:g=original	!
.	.	.	.	.	.	.	1d\	.	2f\	-o-
*Xlig	*	*	*	*	*	*	*	*	*	*
=41-	=41-	=41-	=41-	=41-	=41-	=41-	=41-	=41-	=41-	=41-
1E	.	0ryy	.	1G	.	.	.	.	1e	-nis
.	.	.	.	.	.	.	2c\	.	.	.
*	*	*	*	*Xlig	*	*	*	*	*	*
*	*	*	*	*lig	*	*	*	*	*	*
2D/	-nis	.	.	1F	ro-	.	1d	-nis	2A/	.
2F\	ro-	.	.	.	.	.	.	.	1d\	ro-
=42-	=42-	=42-	=42-	=42-	=42-	=42-	=42-	=42-	=42-	=42-
1E	-re	0ryy	.	1G	.	.	1r	.	.	.
.	.	.	.	.	.	.	.	.	2c/	-re
*lig	*	*	*	*Xlig	*	*	*	*	*	*
*	*	*	*	*lig	*	*	*	*	*	*
1D	ma-	.	.	1A	.	.	2r	.	2d\	.
.	.	.	.	.	.	.	1d\	ro-	2f\	.
=43-	=43-	=43-	=43-	=43-	=43-	=43-	=43-	=43-	=43-	=43-
1E	.	0ryy	.	1G	.	.	.	.	1e	ma-
.	.	.	.	.	.	.	2c\	-re	.	.
*Xlig	*	*	*	*Xlig	*	*	*	*	*	*
2D/	-de(n)s	.	.	1A	-re	De-	2d\	ma-	2A/	-dens
1D\	ro-	.	.	.	.	.	2f\	.	2d\	ro-
=44-	=44-	=44-	=44-	=44-	=44-	=44-	=44-	=44-	=44-	=44-
*	*	*	*	*lig	*	*	*	*	*	*
.	.	0ryy	.	1G	ma-	.	1e	-dens	1e	-re
2C/	-re	.	.	.	.	.	.	.	.	.
1D	ma-	.	.	1F	.	.	2A/	.	2f\	ma-
*	*	*	*	*	*	*	*	*ij	*	*
.	.	.	.	.	.	.	1d\	ro-	2d\	-de(n)s
*	*	*	*	*Xlig	*	*	*	*	*	*
=45-	=45-	=45-	=45-	=45-	=45-	=45-	=45-	=45-	=45-	=45-
*	*	*	*	*lig	*	*	*	*	*	*
1AA	-de(n)s	0ryy	.	1E	.	.	.	.	1e	.
.	.	.	.	.	.	.	2c\	-re	.	.
2.D/	pneu-	.	.	1F	.	.	2d\	ma-	1.d	.
*	*	*	*	*	*	*	*custos:A	*	*	*
!	!	!	!	!	!	!	!LO:LB:g=original	!	!	!
.	.	.	.	.	.	.	2.A/	-dens	.	.
4E\	.	.	.	.	.	.	.	.	.	.
*	*	*	*	*Xlig	*	*	*	*Xij	*	*
=46-	=46-	=46-	=46-	=46-	=46-	=46-	=46-	=46-	=46-	=46-
2.F\	.	0ryy	.	1D	-de(n)s	-i	.	.	.	.
.	.	.	.	.	.	.	4G/	.	.	.
.	.	.	.	.	.	.	4A/	.	2.f\	.
8E/L	.	.	.	.	.	.	4B\	.	.	.
8D/J	.	.	.	.	.	.	.	.	.	.
*custos:C	*	*	*	*	*	*	*	*	*	*
!LO:LB:g=original	!	!	!	!	!	!	!	!	!	!
1C	.	.	.	1G	pneu-	Fi-	2c\	.	.	.
.	.	.	.	.	.	.	.	.	4e\	pne-
.	.	.	.	.	.	.	2c\	pneu-	1e\	-u-
=47-	=47-	=47-	=47-	=47-	=47-	=47-	=47-	=47-	=47-	=47-
*	*	*	*	*lig	*	*	*	*	*	*
1D	-ma-	0ryy	.	1F	-ma-	.	1A	-ma-	.	.
.	.	.	.	.	.	.	.	.	2d\	-ma-
!LO:TX:a:t=28:problem=dopisany inną ręką	!	!	!	!	!	!	!LO:TX:t=28:problem=dopisany inną ręką	!	!LO:TX:t=28:problem=dopisany inną ręką	!
[1AAl/	-tis	.	.	1E	.	.	[1Al\	-t(is)	[1e\l	-tis
*	*	*	*	*Xlig	*	*	*	*	*	*
=48-	=48-	=48-	=48-	=48-	=48-	=48-	=48-	=48-	=48-	=48-
!	!	!	!	!LO:TX:t=29:problem=dopisany inną ręką	!	!	!	!	!	!
0AA]	.	0ryy	.	0E;l\	-t(is)	-lij	0A]	.	0e\]	.
*	*	*	*	*	*	*	*	*	*custos:e	*
=49-	=49-	=49-	=49-	=49-	=49-	=49-	=49-	=49-	=49-	=49-
!	!	!	!	!	!	!	!	!	!LO:PB:g=original	!
1E	Va-	0ryy	.	1B	Va-	A-	1G	va-	1e	va-
1D	-le	.	.	1d	-le	.	2A/	-le	1f	-le
.	.	.	.	.	.	.	2F/	Ia-	.	.
=50-	=50-	=50-	=50-	=50-	=50-	=50-	=50-	=50-	=50-	=50-
2C/	Ia-	0ryy	.	1e	Ia-	.	2G/	-cob	2e\	Ia-
2.AA/	-cob	.	.	.	.	.	1A	mi-	1c	-cob
.	.	.	.	1e	-cob	-ve	.	.	.	.
4BB/	.	.	.	.	.	.	.	.	.	.
4C/	.	.	.	.	.	.	4G/	.	4B/	.
4D/	.	.	.	.	.	.	4F/	.	4A/	.
*	*	*	*	*custos:e	*	*	*	*	*	*
=51-	=51-	=51-	=51-	=51-	=51-	=51-	=51-	=51-	=51-	=51-
!	!	!	!	!LO:LB:g=original	!	!	!	!	!	!
2E\	.	0ryy	.	1e	mi-	ſpon-	2E/	.	2G/	.
2C/	.	.	.	.	.	.	2G/	-ca(n)s	2c/	.
*	*	*	*	*	*	*	*custos:F	*	*	*
!	!	!	!	!	!	!	!LO:LB:g=original	!	!	!
1D	mi-	.	.	1d	-ca(n)s	.	2.F/	ſtel-	2A/	mi-
.	.	.	.	.	.	.	.	.	1d\	-ca(n)s
.	.	.	.	.	.	.	4G/	-la	.	.
=52-	=52-	=52-	=52-	=52-	=52-	=52-	=52-	=52-	=52-	=52-
1AA	-ca(n)s	0ryy	.	1e	ſtel-	.	1A	.	.	.
.	.	.	.	.	.	.	.	.	2c/	ſtel-
1D	ſtel-	.	.	1d	-la	.	2D/	.	2d/	-la
.	.	.	.	.	.	.	1A\	et	2f\	et
=53-	=53-	=53-	=53-	=53-	=53-	=53-	=53-	=53-	=53-	=53-
*	*	*	*	*lig	*	*	*	*	*	*
1E	-la	0ryy	.	1B	et	.	.	.	2.e\	il-
.	.	.	.	.	.	.	2G/	il-	.	.
.	.	.	.	.	.	.	.	.	4d/	-lu-
2AA/	et	.	.	1c	.	.	1A	-luſ-	4c/	.
.	.	.	.	.	.	.	.	.	4B/	.
2C/	ill-	.	.	.	.	.	.	.	1A/	.
*custos:BB	*	*	*	*Xlig	*	*	*	*	*	*
=54-	=54-	=54-	=54-	=54-	=54-	=54-	=54-	=54-	=54-	=54-
!LO:LB:g=original	!	!	!	!	!	!	!	!	!	!
1BB	-luſ-	0ryy	.	1d	il-	-ſa	2.D/	-trans	.	.
.	.	.	.	.	.	.	.	.	2G/	.
.	.	.	.	.	.	.	4E/	.	.	.
*	*	*	*	*lig	*	*	*	*	*custos:A	*
!	!	!	!	!	!	!	!	!	!LO:LB:g=original	!
2AA/	-tra(n)s	.	.	1c	-luſ-	.	4F/	.	4A/	-ſtrans
.	.	.	.	.	.	.	4G/	.	4B/	.
*	*ij	*	*	*	*	*	*	*	*	*
1A\	et	.	.	.	.	.	2A/	.	4c/	.
.	.	.	.	.	.	.	.	.	4d\	.
=55-	=55-	=55-	=55-	=55-	=55-	=55-	=55-	=55-	=55-	=55-
.	.	0ryy	.	1B	.	.	4B\	Ma-	4e\	.
.	.	.	.	.	.	.	4c\	.	4f\	.
2G\	ill-	.	.	.	.	.	4d\	.	2g\	.
.	.	.	.	.	.	.	4B\	.	.	.
*	*	*	*	*Xlig	*	*	*	*	*	*
*	*	*	*	*lig	*	*	*	*	*	*
2F\	-luſ-	.	.	1A	-trans	.	2c\	.	2c/	.
2D/	-tra(n)s	.	.	.	.	.	2d\	.	2.f\	.
*	*Xij	*	*	*	*	*	*	*	*	*
=56-	=56-	=56-	=56-	=56-	=56-	=56-	=56-	=56-	=56-	=56-
1E	ma-	0ryy	.	1G	.	.	2B\	.	.	.
.	.	.	.	.	.	.	.	.	4e\	ma-
*	*	*	*	*	*	*	*custos:c	*	*	*
!	!	!	!	!	!	!	!LO:PB:g=original	!	!	!
.	.	.	.	.	.	.	2.c\	.	1e	.
*	*	*	*	*Xlig	*	*	*	*	*	*
1F	-ri-	.	.	1A	ma-	.	.	.	.	.
.	.	.	.	.	.	.	4B/	.	.	.
.	.	.	.	.	.	.	1A\	.	2d\	-ri-
=57-	=57-	=57-	=57-	=57-	=57-	=57-	=57-	=57-	=57-	=57-
0E	-a	0ryy	.	1B	-ri-	.	.	.	1e	-a
.	.	.	.	.	.	.	4G/	.	.	.
.	.	.	.	.	.	.	4F/	.	.	.
.	.	.	.	1B	-a	De-	1G	-ri-	1e	va-
=58-	=58-	=58-	=58-	=58-	=58-	=58-	=58-	=58-	=58-	=58-
2r	.	0ryy	.	1c	ua-	.	1A	-a	2c/	-le
2AA/	va-	.	.	.	.	.	.	.	2.e\	.
2C/	-le	.	.	1A	-le	.	2r	.	.	.
.	.	.	.	.	.	.	.	.	4d\	con-
2D/	con-	.	.	.	.	.	2F/	va-	1d\	.
=59-	=59-	=59-	=59-	=59-	=59-	=59-	=59-	=59-	=59-	=59-
1E	-ſi-	0ryy	.	1G	con-	.	2G/	-le	.	.
.	.	.	.	.	.	.	2G/	con-	2c/	-ſi-
*	*	*	*	*lig	*	*	*	*	*custos:f	*
!	!	!	!	!	!	!	!	!	!LO:LB:g=original	!
2.D/	-gna-	.	.	1F	-ſi-	-i	1A	-ſi-	2.f\	-gna-
4C/	.	.	.	.	.	.	.	.	4e\	.
=60-	=60-	=60-	=60-	=60-	=60-	=60-	=60-	=60-	=60-	=60-
1BB	.	0ryy	.	1G	.	.	2.D/	-gna-	4d\	.
.	.	.	.	.	.	.	.	.	4c\	.
.	.	.	.	.	.	.	.	.	1d	.
.	.	.	.	.	.	.	4E/	.	.	.
*	*	*	*	*Xlig	*	*	*	*	*	*
1AA	-ta	.	.	1A	.	.	2F/	.	.	.
.	.	.	.	.	.	.	2E/	.	2c/	.
=61-	=61-	=61-	=61-	=61-	=61-	=61-	=61-	=61-	=61-	=61-
2r	.	0ryy	.	1A	-gna-	ſpi-	2D/	-ta	1d	-ta
2D/	con-	.	.	.	.	.	2.d\	.	.	.
*custos:BB	*	*	*	*custos:G	*	*	*	*	*	*
!LO:LB:g=original	!	!	!	!LO:LB:g=original	!	!	!	!	!	!
2BB/	-ſi-	.	.	1G	-ta	.	.	.	2g\	con-
.	.	.	.	.	.	.	4c\	cel-	.	.
*	*	*	*	*	*	*	*custos:c	*	*	*
!	!	!	!	!	!	!	!LO:LB:g=original	!	!	!
2C/	-gna-	.	.	.	.	.	1c\	.	2e\	-ſi-
=62-	=62-	=62-	=62-	=62-	=62-	=62-	=62-	=62-	=62-	=62-
*	*	*	*	*lig	*	*	*	*	*	*
1D	-ta	0ryy	.	1F	cel-	.	.	.	2f\	-gna-
.	.	.	.	.	.	.	2B\	-la	2d\	-ta
*lig	*	*	*	*	*	*	*	*	*	*
1C	cel-	.	.	1E	.	.	1c	.	1e	cel-
*	*	*	*	*Xlig	*	*	*	*	*	*
=63-	=63-	=63-	=63-	=63-	=63-	=63-	=63-	=63-	=63-	=63-
1D	.	0ryy	.	1F	.	.	2r	.	1d	-la
.	.	.	.	.	.	.	2A/	ru-	.	.
*Xlig	*	*	*	*	*	*	*	*	*	*
1GG	-la	.	.	1D	-la	-ri-	2B\	-bus	2r	.
.	.	.	.	.	.	.	2G/	in	2d\	ru-
=64-	=64-	=64-	=64-	=64-	=64-	=64-	=64-	=64-	=64-	=64-
2r	.	0ryy	.	1D	ru-	-tus	2.A/	ui	2d\	-bus
2D/	rŭ-	.	.	.	.	.	.	.	2f\	in
.	.	.	.	.	.	.	4B\	.	.	.
2E\	-bŭs	.	.	1C	-bŭs	.	4c\	.	4e\	ui
.	.	.	.	.	.	.	4d\	.	4d\	.
2G\	in	.	.	.	.	.	2e\	.	4c/	.
.	.	.	.	.	.	.	.	.	4B/	.
*	*	*	*	*	*	*	*	*	*custos:A	*
=65-	=65-	=65-	=65-	=65-	=65-	=65-	=65-	=65-	=65-	=65-
!	!	!	!	!	!	!	!	!	!LO:LB:g=original	!
2.F\	ui	0ryy	.	1D	in	.	1d	.	2A/	.
.	.	.	.	.	.	.	.	.	2.d\	flam-
4E\	.	.	.	.	.	.	.	.	.	.
*	*	*	*	*lig	*	*	*	*	*	*
4D/	.	.	.	1F	ui	ſan-	2r	.	.	.
4C/	.	.	.	.	.	.	.	.	4e\	.
1D\	.	.	.	.	.	.	2.A/	flam-	4f\	.
.	.	.	.	.	.	.	.	.	4d\	.
=66-	=66-	=66-	=66-	=66-	=66-	=66-	=66-	=66-	=66-	=66-
.	.	0ryy	.	1E	.	.	.	.	1e	-­-
.	.	.	.	.	.	.	4B\	.	.	.
2C/	.	.	.	.	.	.	2c\	.	.	.
*	*	*	*	*Xlig	*	*	*	*	*	*
1D	flam-	.	.	1D	flam-	.	0A	-me-	2f\	.
.	.	.	.	.	.	.	.	.	1d\	.
=67-	=67-	=67-	=67-	=67-	=67-	=67-	=67-	=67-	=67-	=67-
1AA	-me-	0ryy	.	1E	-me-	.	.	.	.	.
.	.	.	.	.	.	.	.	.	4c#X/	-me-
.	.	.	.	.	.	.	.	.	4B/	-a
!LO:TX:a:t=38:problem=dopisany inną ręką	!	!	!	!LO:TX:t=38:problem=dopisany inną ręką	!	!	!LO:TX:t=38:problem=dopisany inną ręką	!	!LO:TX:t=38:problem=dopisany inną ręką	!
1AAl/	-a	.	.	1E;l\	-a	-cti	1Al\	-a	1c#;l\	.
*custos:GG	*	*	*	*	*	*	*custos:B	*	*	*
=68-	=68-	=68-	=68-	=68-	=68-	=68-	=68-	=68-	=68-	=68-
!LO:PB:g=original	!	!	!	!	!	!	!LO:LB:g=original	!	!	!
4GG/	Pan-	0ryy	.	1G	Pan-	a-	1B	Pan-	2.d\	Pan-
4AA/	.	.	.	.	.	.	.	.	.	.
4BB/	.	.	.	.	.	.	.	.	.	.
4C/	.	.	.	.	.	.	.	.	4e\	.
2D/	.	.	.	1D	-ge	.	2A/	-ge	2f\	.
2GG/	-ge	.	.	.	.	.	2G/	au-	1g\	.
=69-	=69-	=69-	=69-	=69-	=69-	=69-	=69-	=69-	=69-	=69-
1D	au-	0ryy	.	1D	aŭ-	.	2.A/	-ro-	.	.
.	.	.	.	.	.	.	.	.	2f\	.
.	.	.	.	.	.	.	4B\	.	.	.
2AA/	-ro-	.	.	1C	-ro-	-ve	4c\	.	1e	-ge
.	.	.	.	.	.	.	4B\	.	.	.
2C/	.	.	.	.	.	.	1A\	.	.	.
*	*	*	*	*custos:D	*	*	*	*	*custos:d	*
=70-	=70-	=70-	=70-	=70-	=70-	=70-	=70-	=70-	=70-	=70-
!	!	!	!	!LO:PB:g=original	!	!	!	!	!LO:PB:g=original	!
1BB	.	0ryy	.	1D	-ra	.	.	.	1d	ro-
.	.	.	.	.	.	.	2G/	.	.	.
2AA/	-ra	.	.	1E	con-	.	2A/	-ra	2cny/	-ra
2GG/	con-	.	.	.	.	.	2B\	.	2B/	con-
=71-	=71-	=71-	=71-	=71-	=71-	=71-	=71-	=71-	=71-	=71-
1AA	-ſur-	0ryy	.	1E	-ſur-	to-	1c	con-	1A	-ſur-
1EE	-ge(n)s	.	.	1E	-gens	-ti-	1B	.	2G/	-gens
.	.	.	.	.	.	.	.	.	2g\	lu-
=72-	=72-	=72-	=72-	=72-	=72-	=72-	=72-	=72-	=72-	=72-
*	*	*	*	*lig	*	*	*	*	*	*
1r	.	0ryy	.	1F	lu-	.	1A	-ſur-	2f\	-ce
.	.	.	.	.	.	.	.	.	2d\	no-
2r	.	.	.	1E	.	.	1B	-gens	1e	-ui
2G\	lu-	.	.	.	.	.	.	.	.	.
*	*	*	*	*Xlig	*	*	*	*	*	*
=73-	=73-	=73-	=73-	=73-	=73-	=73-	=73-	=73-	=73-	=73-
2F\	-ce	0ryy	.	1D	-ce	-us	2r	.	2.f\	ſi-
2D/	no-	.	.	.	.	.	2d\	lu-	.	.
.	.	.	.	.	.	.	.	.	4f\	-de-
*	*	*	*	*lig	*	*	*	*	*	*
1E	-ui	.	.	1G	no-	Tri-	2c\	-ce	2e\	-ris
.	.	.	.	.	.	.	2B/	no-	2g\	lu-
=74-	=74-	=74-	=74-	=74-	=74-	=74-	=74-	=74-	=74-	=74-
2.F\	ſi-	0ryy	.	1A	.	.	2A/	-ui	2f\	-ce
*	*	*	*	*	*	*	*custos:d	*	*	*
!	!	!	!	!	!	!	!LO:LB:g=original	!	!	!
.	.	.	.	.	.	.	2d\	lu-	2d\	no-
4F\	-de-	.	.	.	.	.	.	.	.	.
*custos:E	*	*	*	*Xlig	*	*	*	*	*	*
!LO:LB:g=original	!	!	!	!	!	!	!	!	!	!
1E	-ris	.	.	1G	-ui	.	2B\	-ce	1e	-ui
.	.	.	.	.	.	.	2G/	no-	.	.
=75-	=75-	=75-	=75-	=75-	=75-	=75-	=75-	=75-	=75-	=75-
2r	.	0ryy	.	1F	.	-ni-	2A/	-ui	2f\	ſi-
2D/	lu-	.	.	.	.	.	2.B/	ſij-	2d\	-de-
2C/	-ce	.	.	1E	.	.	.	.	2e\	-ris
.	.	.	.	.	.	.	4A/	.	.	.
*	*	*	*	*	*	*	*	*	*custos:c	*
!	!	!	!	!	!	!	!	!	!LO:LB:g=original	!
2AA/	no-	.	.	.	.	.	1A\	.	2c/	no-
=76-	=76-	=76-	=76-	=76-	=76-	=76-	=76-	=76-	=76-	=76-
1BB	-ui	0ryy	.	1D	ſi-	-ta-	.	.	1d	-ui
.	.	.	.	.	.	.	2G/	.	.	.
2.AA/	ſij-	.	.	1E	-de-	.	2.A/	.	2.c/	ſi-
4AA/	-de-	.	.	.	.	.	4A/	-de-	4c/	-de-
=77-	=77-	=77-	=77-	=77-	=77-	=77-	=77-	=77-	=77-	=77-
!LO:TX:a:t=19:problem=dopisany inną ręką	!	!	!	!LO:TX:t=19:problem=dopisany inną ręką	!	!	!LO:TX:t=19:problem=dopisany inną ręką	!	!LO:TX:t=19:problem=dopisany inną ręką	!
0EEl/	-ris	0ryy	.	0E;l\	-ris	-tis	0Gl\	-ris	0B;l\	-ris
*	*	*	*	*custos:G	*	*	*	*	*	*
=78-	=78-	=78-	=78-	=78-	=78-	=78-	=78-	=78-	=78-	=78-
!LO:TX:a:t=Quinq(ue)	!	!	!LO:LB:g=original	!	!	!	!	!	!	!
1E	E-	1r	.	1G	E-	No-	1B	E-	1e	E-
2AA/	-ija	1E	Ma-	1A	-ija	.	1c	-ija	1e	-ija
1C/	ma-	.	.	.	.	.	.	.	.	.
=79-	=79-	=79-	=79-	=79-	=79-	=79-	=79-	=79-	=79-	=79-
.	.	1G	-gni-	1c	ma-	.	1e	ma-	2c/	ma-
2C/	-gni-	.	.	.	.	.	.	.	2.g\	-gni-
*	*	*lig	*	*	*	*	*	*	*	*
!	!	!	!	!LO:TX:t=P:problem=poprawka wysokości	!	!	!	!	!	!
1C	-fi-	1G	-fi-	1G	-gni-	-bi-	2e\	-gni-	.	.
.	.	.	.	.	.	.	.	.	4f\	.
.	.	.	.	.	.	.	2c\	-fi-	4e\	.
.	.	.	.	.	.	.	.	.	4d\	.
*	*	*	*	*	*	*	*custos:c	*	*	*
=80-	=80-	=80-	=80-	=80-	=80-	=80-	=80-	=80-	=80-	=80-
!	!	!	!	!	!	!	!LO:PB:g=original	!	!	!
1AA	-cat	1A	.	1c	-fi-	-le	2c\	-cat	2e\	.
.	.	.	.	.	.	.	1e	tu-	2e\	-fi-
*custos:AA	*	*Xlig	*	*	*	*	*	*	*	*
!LO:LB:g=original	!	!	!	!	!	!	!	!	!	!
1AA	tu-	2A/	-cat	1A	-cat	.	.	.	1c	-cat
*	*	*	*ij	*	*	*	*	*	*	*
.	.	2E/	Ma-	.	.	.	4d\	.	.	.
.	.	.	.	.	.	.	4c\	.	.	.
=81-	=81-	=81-	=81-	=81-	=81-	=81-	=81-	=81-	=81-	=81-
1E	-a	1G	-gni-	1G	tu-	.	2B\	.	2.e\	tu-
.	.	.	.	.	.	.	2c\	.	.	.
.	.	.	.	.	.	.	.	.	4f\	.
*	*	*lig	*	*	*	*	*	*	*custos:g	*
!	!	!	!	!	!	!	!	!	!LO:LB:g=original	!
1r	.	1G	-fi-	1E	-a	.	2B\	-a	2g\	-a
.	.	.	.	.	.	.	2.e\	Ie-	2c/	Ie-
=82-	=82-	=82-	=82-	=82-	=82-	=82-	=82-	=82-	=82-	=82-
*lig	*	*	*	*lig	*	*	*	*	*lig	*
1D	Ie-	1A	.	1F	Ie-	.	.	.	1d	-ſum
.	.	.	.	.	.	.	4d\	.	.	.
.	.	.	.	.	.	.	1d	.	.	.
*	*	*Xlig	*	*	*	*	*	*	*	*
1AA	.	0A	-cat	1E	.	.	.	.	1e	.
.	.	.	.	.	.	.	2c\	.	.	.
*Xlig	*	*	*Xij	*Xlig	*	*	*	*	*Xlig	*
=83-	=83-	=83-	=83-	=83-	=83-	=83-	=83-	=83-	=83-	=83-
2D/	-ſum	.	.	1D	-ſum	.	2d\	-ſum	1f	.
2.F\	.	.	.	.	.	.	2.d\	.	.	.
.	.	1r	.	1F	Chri-	Tri-	.	.	2r	.
4E\	Chri-	.	.	.	.	.	4c\	Chri-	.	.
4D/	.	.	.	.	.	.	1c\	.	2f\	Ie-
4C/	.	.	.	.	.	.	.	.	.	.
=84-	=84-	=84-	=84-	=84-	=84-	=84-	=84-	=84-	=84-	=84-
*	*	*	*	*lig	*	*	*	*	*	*
1D	.	00r	.	1F	.	-cli-	.	.	2d\	-ſum
.	.	.	.	.	.	.	2B/	-ſtum	2.f\	Chri-
1C	-ſtum	.	.	1G	.	.	1c	.	.	.
.	.	.	.	.	.	.	.	.	4e\	-ſtum
.	.	.	.	.	.	.	.	.	1e\	.
*	*	*	*	*Xlig	*	*	*	*	*	*
=85-	=85-	=85-	=85-	=85-	=85-	=85-	=85-	=85-	=85-	=85-
*	*	*	*	*lig	*	*	*	*	*	*
1F	.	.	.	1A	-ſtum	.	2r	.	.	.
.	.	.	.	.	.	.	2A/	Ie-	2d\	.
*	*	*	*	*	*	*	*custos:B	*	*	*
!	!	!	!	!	!	!	!LO:LB:g=original	!	!	!
1E	Ie-	.	.	1G	.	.	1B	-ſum	1e	.
*	*	*	*	*Xlig	*	*	*	*	*	*
=86-	=86-	=86-	=86-	=86-	=86-	=86-	=86-	=86-	=86-	=86-
*	*	*	*	*	*	*	*	*	*	*ij
1C	-ſum	1r	.	1G	A-	.	1c	Chr(i-	1e	Ie-
2.D/	Chr(i-	1A	a-	1F	.	.	1A	-stu)m	2f\	.
.	.	.	.	.	.	.	.	.	2d\	-ſum
4C/	.	.	.	.	.	.	.	.	.	.
=87-	=87-	=87-	=87-	=87-	=87-	=87-	=87-	=87-	=87-	=87-
2AA/	-stu)m	1A	-ni-	1E	.	.	1r	.	2e\	Chri-
2C/	a-	.	.	.	.	.	.	.	2c/	.
1BB	-ni-	1G	-ma	1D	-ni-	-ni-	2r	.	1d	-ſtum
.	.	.	.	.	.	.	2G/	Ie-	.	.
*custos:AA	*	*	*	*	*	*	*	*	*	*Xij
=88-	=88-	=88-	=88-	=88-	=88-	=88-	=88-	=88-	=88-	=88-
!LO:LB:g=original	!	!	!	!LO:TX:t=21:problem=dopisany inną ręką	!	!	!	!	!	!
!	!	!	!	!LO:TX:b:t=6:problem=dopisany inną ręką	!	!	!	!	!	!
1AA	-ma	1A	me-	[0El/	-ma	-u(m)	2c\	-ſum	2.c/	a-
.	.	.	.	.	.	.	2c\	Chr(i-	.	.
.	.	.	.	.	.	.	.	.	4d/	-ni-
*	*	*	*	*	*	*	*	*	*custos:e	*
!	!	!	!	!	!	!	!	!	!LO:LB:g=original	!
2r	.	1c	-a	.	.	.	2G/	-stu)m	1e	-ma
2AA/	Ie-	.	.	.	.	.	2.c\	A-	.	.
=89-	=89-	=89-	=89-	=89-	=89-	=89-	=89-	=89-	=89-	=89-
2C/	-ſum	1G	Do-	0E_	.	.	.	.	2r	.
.	.	.	.	.	.	.	4B\	.	.	.
2C/	Chr(i-	.	.	.	.	.	4G/	.	2e\	Je-
.	.	.	.	.	.	.	4A/	.	.	.
2GG/	-stu)m	1G	-(m)i-	.	.	.	2B\	.	2g\	-ſum
2.C/	.	.	.	.	.	.	2c\	-ni-	2g\	chri-
=90-	=90-	=90-	=90-	=90-	=90-	=90-	=90-	=90-	=90-	=90-
.	.	00E;l\	-(nu)m	0E_	.	.	2G/	-ma	2c/	-ſtu(m)
4BB/	a-	.	.	.	.	.	.	.	.	.
4AA/	.	.	.	.	.	.	1c	a-	1e	a-
4GG/	.	.	.	.	.	.	.	.	.	.
2AA/	.	.	.	.	.	.	.	.	.	.
2AA/	-ni-	.	.	.	.	.	2c\	-ni-	2e\	-ni-
=91-	=91-	=91-	=91-	=91-	=91-	=91-	=91-	=91-	=91-	=91-
!LO:TX:a:t=27:problem=dopisany inną ręką	!	!	!	!	!	!	!LO:TX:t=27:problem=dopisany inną ręką	!	!LO:TX:t=27:problem=dopisany inną ręką	!
0EEl/	-ma	.	.	0E]	.	.	0Bl\	-ma	0el\	-ma
==	==	==	==	==	==	==	==	==	==	==
*-	*-	*-	*-	*-	*-	*-	*-	*-	*-	*-
!!!system-decoration: [(s1,s2,s3,s4,s5)]
!!!RDF**kern: l = terminal long
!!!ENC: Katarzyna Serwa
!!!END: 2022-03-15
!!!AIN: 1 alto 1 bass 1 soprn 1 tenor 1 vox
!!!ENC: Mateusz Solarz
!!!END: 2022-02-24
